X:371
T:Vine Tree, the
R:Mazurka 32
O:Paul Burgess
F:http://banjolin.co.uk/tunes/abcs/vinetree.abc
M:3/4
L:1/8
K:G
|:B2 GF G2|AF DF A2|DE FG AB|c2BA Bd|
|B2 GF G2|AF DF A2|DE FG Ac|B2G4:||
|:Bc d2g2|d2d2cB|AG FGA2|c2c2BA|
|Bc d2g2|d2d2 cB|AG FA dB |cF A2 G2:||

